X:1
T:Mrs. Muir MacKenzie
C:Joe Buchanan's Scottish Tome - Page 200.2
L:1/8
M:4/4
I:linebreak $
K:D
V:1 treble 
V:1
 A |"D" D d2 A FDD=F |"C" E =c2 G E=CCE |"D" D d2 A"A7" FGAg |"D" fd"A7"ef"D" d/d/d d2 |$ %5
"D" D d2 A FDD=F |"C" E =c2 G E=CCE |"D" D d2 A"A7" FGAg |"D" fd"A7"ef"D" d/d/d d |] f |$ %10
"D" afdf abaf |"C" ge=ce gage |"D" afdf abaf |"A7" geaf"D" d/d/d df |"D" afdf abaf |$ %15
"C" ge=ce gage |"D" afdf abaf |"A7" geaf"D" d/d/d d |] %18
